X:1
T:D Major Timothy Swan, 1801
T:Isaac Watts, 1709 (Hymn 47, Book 2)         88. 88. (L. M.)
T:Appleton
T:Transcribed from Swan's New England Harmony, 1801.
%%score [ 1 2 3 ]
L:1/8
Q:1/4=90
M:3/4
K:D
V:1 treble nm="Tr." snm="Tr."
V:2 treble-8 nm="T." snm="T."
V:3 bass nm="B." snm="B."
V:1
"^2. See  where  it      shines    in       Je   –   sus'      face,     The      brigh – test    i    –    mage      of             his       grace;       God, in the""^1. Now   to     the      Lord       a         no   –   ble      song!    A     –    wake,  my    soul;    a     –    wake,       my      tongue;      Hosannah" A2 | %1
 F4 B2 | B4 A2 | (B2 d2) A2 | A4 d2 | e4 fd | d4 (3dcB | A4 Bc | d4 z2 | d2 c2 e2 | %10
"^1. to       th'E –  ter    –   nal Name,  And   all   his   boundless   love  proclaim,  And    all          his   boundless   love        pro–claim.""^2. per – son     of           his   Son,     Has     all   his  mightiest  works  outdone.   Has     all          his   mightiest     works    out–done." d4 fe | %11
 (d2 c2) B2 | A4 Ad | (f2 e2) A2 | B4 A2 | A4 c2 | d4 fd | (ce d2) A2 | B4 d2 | (3(dcB A2) A2 | %20
 A6 |] %21
V:2
"^3. The   spacious      earth   and    sprea–ding  flood     Pro  –  claim   the     wise   and        power –  ful          God;      And thy rich""^4. But    in     his         looks     a         glo   –   ry    stands,   The       no – blest      la   –   bor         of            thine    hands;    The pleasing" A2 | %1
 A4 Bd | (d2 B2) cA | d4 ce | e4 (3fed | c4 dB | A4 (3BAG | (F A3) (3GFE | D4 z2 | A2 F2 A2 | %10
"^3. glo – ries     from        a   –  far    Spar – kle     in        eve  –  ry      rolling  star,    Spar – kle       in     eve –  ry    rol    –     ling   star.""^4. lus – ter       of             his  eyes   Out–shines  the    won – ders  of  the  skies,  Out –shines   the  won–ders  of             the  skies.." (B2 G2) E2 | %11
 (d>f e2) d2 | c4 A2 | (d2 e2) cA | (d2 e2) cA | e4 e2 | f4 A2 | (A2 B2) c2 | (d2 e2) f2 | %19
 (3(fed A2) c2 | d6 |] %21
V:3
"^5. Grace!  'tis   a       sweet,    a        char–ming   theme;   My   thoughts  re –joice    at            Je      –     sus'         name:      Ye angels,""^6. O      may       I        live        to        reach   the    place      Where   he     un – veils    his         love  –      ly             face!   Where all his" D,2 | %1
 D,4 B,,2 | G,4 F,D, | D,4 A,2 | [A,,A,]4 D2 | A,4 D2 | D,4 E,2 | (F,2 D,2) A,,2 | D,4 z2 | %9
 D,2 F,2 A,,2 | %10
"^6. beau – ties   you        be– hold,   And   sing     his      name  to  harps  of  gold,    And  sing      his   name  to    harps        of    gold!""^5. dwell  up –  on        the  sound!  Ye     heav'ns,  re–flect    it   to   the ground!    Ye   heav'ns,  re– flect     it     to               the ground." G,4 F,A, | %11
 (D2 A,2) [D,B,]2 | A,4 F,D, | %13
"^_________________________________\nEdited by B. C. Johnston, 2016\n   1. Top and second staffs exchanged.\n   2. Whole piece moved down from E major to D major.\n   3. Measure 20, Bass: note changed from C# to D." (D,2 A,,2) F,2 | %14
 (G,2 E,2) D,2 | A,4 A,,2 | D,4 D,2 | (A,2 G,2) F,2 | (G,2 E,2) D,2 | (3(G,A,B, A,2) A,,2 | D,6 |] %21

